X: 4972
T: Brenda Stubbert's
R: reel
M: 4/4
K: Adorian
|:A2BA GAAB|A2Bd eddB|G2BA BGGB|c2BA BGGB|
A2 BA GAAB|A2Bd edde|gedB GABd|e2dB eA A2:|
Aza2 Azg2|eage ageg|G2BA BGGB|c2BA BGGB|
Aza2 Azg2|eage agea|gedB GABd|e2dB eA~A2|
Aza2 Azg2|eage ageg|G2BA BGGB|c2BA BGGB|
A2 BA GAAB|A2Bd edde|gedB GABd|e2dB eA A2||

